X:3030
T:Come Ashore Jolly Tar with your Trousers On
T:Jacky Tar
T:Cuckoo's Nest, The
R:Reel
C:Trad.
O:England
Z:Paul Hardy's Session Tunebook 2015 (see www.paulhardy.net). Creative Commons cc by-nc-sa licenced.
M:4/4
L:1/8
Q:1/4=120
K:G
BA|"Em"GFGE g2 fe|"G"dBGB d2 cB|"D"AGFE D2 d^c|d2 A2 A2 BA|
"Em"GFGE g2 fe|"G"dBGB d2 cB|"D"AGFE DEFA|"Em"G2 E2 E2:|
|:z2|"Em"e2 ef g2 fe|"G"d2 B2B3 B|"D"ABde faef|d2 A2 A2 Bd|
"Em"e2 ef g2 fe|"G"dBGB d2 cB|"D"AGFE DEFA|"Em"G2 E2 E2:|
|:GA|"Em"BGEG BAGF|E6 FG|"D"AFDF AFDF|AGFE D2EF|
"Em"GF GE g2 fe|"G"dBGB d2 cB|"D"AGFE DEFA|"Em"G2 E2 E2:|

